X:1
T:[ID 9-21]
T:[ID 9-21]
T:Bezeichnung standardisiert: Concerto Concerto Viol Primo
T:Urheber unbekannt Datum in der hier transkribierten schriftlichen Quelle: 1796
C:Urheber unbekannt
C:Datum in der hier transkribierten schriftlichen Quelle: 1796
L:1/8
M:2/4
K:D
V:1 treble 
V:1
 .d2 .A2 | F/D/E/F/ G/A/B/c/ | dddd | d2 d2 | a/f/d dd | c2 d2 | A/A/B/B/ c/c/d/d/ | %7
 c/c/d/d/ e/e/f/f/ | gAfA | cAdA | gAfA | e/d/c/B/ A2 | .d2 .A2 | F/D/E/F/ G/A/B/c/ | dddd | %15
 d2 d2 | a/f/d dd | c2 d2 | D/D/G/G/ B/B/d/d/ | D/D/F/F/ A/A/d/d/ | d2 c2 | dD/D/ DD | D2 :: %23
 fd/f/ a2 | ec/e/ a2 | dB/d/ a2 | cA/c/ a2 | dEcE | ^GEAE | dEcE | B/A/^G/F/ E2 | %31
 A/A/c/c/ e/e/a/a/ | A/A/c/c/ e/e/a/a/ | c2 B2 | AA,/A,/ A,A, | A,4 | cA ed/c/ | dB fe/d/ | %38
 eA gf/e/ | fA ag/f/ | gAfA | cAdA | gAfA | e/d/c/B/ A2 | .d2 .A2 | F/D/E/F/ G/A/B/c/ | dddd | %47
 d2 d2 | a/f/d dd | c2 d2 | D/D/G/G/ B/B/d/d/ | D/D/F/F/ A/A/d/d/ | d2 c2 | dD/D/ DD | D4 :| %55

